contributed-vectors/aurora_droid.svg

<?xml version="1.0" encoding="UTF-8" standalone="no"?>
<svg
   xmlns:dc="http://purl.org/dc/elements/1.1/"
   xmlns:cc="http://creativecommons.org/ns#"
   xmlns:rdf="http://www.w3.org/1999/02/22-rdf-syntax-ns#"
   xmlns:svg="http://www.w3.org/2000/svg"
   xmlns="http://www.w3.org/2000/svg"
   xmlns:sodipodi="http://sodipodi.sourceforge.net/DTD/sodipodi-0.dtd"
   xmlns:inkscape="http://www.inkscape.org/namespaces/inkscape"
   sodipodi:docname="aurora_droid.svg"
   inkscape:version="1.0.2 (e86c870879, 2021-01-15, custom)"
   version="1.1"
   id="svg2"
   viewBox="0 0 192 192"
   height="192"
   width="192"
   inkscape:export-filename="C:\Users\mshko\Pictures\delta-icons\png\aurora_droid.png"
   inkscape:export-xdpi="96"
   inkscape:export-ydpi="96">
  <sodipodi:namedview
     inkscape:document-rotation="0"
     inkscape:window-maximized="0"
     inkscape:window-y="0"
     inkscape:window-x="-7"
     inkscape:window-height="1008"
     inkscape:window-width="958"
     units="px"
     showgrid="false"
     inkscape:current-layer="svg2"
     inkscape:document-units="px"
     inkscape:cy="109.43129"
     inkscape:cx="66.143609"
     inkscape:zoom="3.4791667"
     inkscape:pageshadow="2"
     inkscape:pageopacity="0"
     borderopacity="1.0"
     bordercolor="#666666"
     pagecolor="#808080"
     id="base"
     inkscape:snap-bbox="false"
     inkscape:object-paths="true"
     inkscape:snap-nodes="true"
     showguides="false"
     inkscape:guide-bbox="true"
     inkscape:snap-object-midpoints="true"
     inkscape:snap-center="true"
     inkscape:snap-global="true"
     inkscape:snap-intersection-paths="true"
     inkscape:snap-smooth-nodes="true"
     inkscape:snap-midpoints="true"
     inkscape:pagecheckerboard="true"
     inkscape:showpageshadow="true"
     borderlayer="false"
     showborder="true">
    <sodipodi:guide
       position="57.67906,166.6099"
       orientation="0.70710678,0.70710678"
       id="guide848"
       inkscape:label=""
       inkscape:locked="false"
       inkscape:color="rgb(0,0,255)" />
    <sodipodi:guide
       position="134.32094,166.6099"
       orientation="-0.70710678,0.70710678"
       id="guide850"
       inkscape:label=""
       inkscape:locked="false"
       inkscape:color="rgb(0,0,255)" />
    <sodipodi:guide
       position="51.859954,166.6099"
       orientation="0,-1"
       id="guide852" />
    <sodipodi:guide
       position="57.67906,172.49997"
       orientation="1,0"
       id="guide854" />
    <sodipodi:guide
       position="134.32094,172.49997"
       orientation="1,0"
       id="guide856" />
    <sodipodi:guide
       position="157.75,101"
       orientation="0,1"
       id="guide871"
       inkscape:label=""
       inkscape:locked="false"
       inkscape:color="rgb(0,0,255)" />
    <sodipodi:guide
       position="46.324218,107.6139"
       orientation="0,1"
       id="guide896"
       inkscape:label=""
       inkscape:locked="false"
       inkscape:color="rgb(0,0,255)" />
    <sodipodi:guide
       position="46.324218,107.6139"
       orientation="1,0"
       id="guide898" />
    <sodipodi:guide
       position="145.67529,135.73891"
       orientation="0,1"
       id="guide900"
       inkscape:label=""
       inkscape:locked="false"
       inkscape:color="rgb(0,0,255)" />
  </sodipodi:namedview>
  <defs
     id="defs4" />
  <metadata
     id="metadata7">
    <rdf:RDF>
      <cc:Work
         rdf:about="">
        <dc:format>image/svg+xml</dc:format>
        <dc:type
           rdf:resource="http://purl.org/dc/dcmitype/StillImage" />
        <dc:title />
      </cc:Work>
    </rdf:RDF>
  </metadata>
  <g
     inkscape:label="Aurora Droid"
     id="layer1-7"
     transform="matrix(0.90318658,0,0,0.90318694,9.2940916,-770.25428)"
     style="display:inline;fill:#fefefe;fill-opacity:1">
    <g
       style="fill:#fefefe;fill-opacity:1"
       id="g31"
       transform="matrix(8,0,0,8,0,860.36216)"
       inkscape:label="Droid">
      <path
         id="path934"
         style="fill:#fefefe;fill-opacity:1;stroke-width:7.09647"
         inkscape:label="head"
         d="m 57.707031,21.25 c -1.107617,-0.0073 -2.171965,0.429563 -2.955078,1.212891 -1.617184,1.616842 -1.617184,4.238626 0,5.855468 l 11.990235,11.990235 c -12.336467,9.013563 -20.417969,23.482671 -20.417969,39.9375 v 2.955078 c 0,2.293553 1.847067,4.140625 4.140625,4.140625 h 91.070316 c 2.29356,0 4.14062,-1.847072 4.14062,-4.140625 v -2.955078 c 0,-16.454829 -8.0815,-30.923937 -20.41797,-39.9375 l 11.99024,-11.990235 c 1.61718,-1.616842 1.61718,-4.238626 0,-5.855468 -1.61662,-1.615888 -4.2369,-1.615888 -5.85352,0 L 117.97461,35.880859 C 111.31049,32.553048 103.93812,30.570313 96,30.570312 c -7.948047,0 -15.328018,1.986924 -21.927734,5.322266 L 60.605469,22.462891 C 59.836235,21.693438 58.795019,21.257727 57.707031,21.25 Z"
         transform="matrix(0.14091512,0,0,0.14091507,-1.5278519,-1.3078477)"
         sodipodi:nodetypes="ccccsssssscccccsccc" />
      <path
         style="fill:#f9de82;fill-opacity:1"
         d="m 15,9 c -0.55,0 -1,-0.45 -1,-1 0,-0.55 0.45,-1 1,-1 0.55,0 1,0.45 1,1 0,0.55 -0.45,1 -1,1 z"
         id="path949"
         inkscape:label="Right Eye" />
      <path
         style="fill:#fed5d4;fill-opacity:1"
         d="M 9,9 C 8.45,9 8,8.55 8,8 8,7.45 8.45,7 9,7 9.55,7 10,7.45 10,8 10,8.55 9.55,9 9,9 Z"
         id="path947"
         inkscape:label="Left Eye" />
      <path
         id="path19"
         style="fill:#fefefe;fill-opacity:1;stroke-width:7.09647"
         inkscape:label="bottom"
         d="m 50.464844,94.439453 c -2.293501,0 -4.140625,1.845172 -4.140625,4.138672 V 122.82422 C 46.324219,150.28757 68.53666,172.5 96,172.5 c 27.46334,0 49.67578,-22.21243 49.67578,-49.67578 V 98.578125 c 0,-2.2935 -1.84712,-4.138672 -4.14062,-4.138672 z"
         transform="matrix(0.14091512,0,0,0.14091507,-1.5278519,-1.3078477)"
         sodipodi:nodetypes="sccsccss" />
    </g>
    <g
       id="g1134"
       transform="matrix(0.22629524,0,0,0.22629524,-121.45257,1190.7919)"
       inkscape:label="Aurora logo"
       style="fill:#fefefe;fill-opacity:1">
      <path
         style="opacity:1;fill:#96ded3;fill-opacity:1;stroke:#96ded3;stroke-width:64.7947;stroke-linecap:round;stroke-linejoin:bevel;stroke-miterlimit:4;stroke-dasharray:none;stroke-opacity:1"
         d="m 1066.9516,-785.08707 -211.60558,0.0229"
         id="path1126"
         inkscape:connector-curvature="0"
         sodipodi:nodetypes="cc" />
      <path
         sodipodi:nodetypes="cc"
         inkscape:connector-curvature="0"
         id="path1128"
         d="m 961.16864,-968.35402 105.78296,183.26695"
         style="opacity:1;fill:#fefefe;fill-opacity:1;stroke:#f9de82;stroke-width:64.7947;stroke-linecap:round;stroke-linejoin:bevel;stroke-miterlimit:4;stroke-dasharray:none;stroke-opacity:1" />
      <path
         sodipodi:nodetypes="cc"
         inkscape:connector-curvature="0"
         id="path1130"
         d="M 961.16864,-968.35402 855.38565,-785.08707"
         style="opacity:1;fill:#fefefe;fill-opacity:1;stroke:#fed5d4;stroke-width:64.7947;stroke-linecap:round;stroke-linejoin:bevel;stroke-miterlimit:4;stroke-dasharray:none;stroke-opacity:1" />
      <path
         style="color:#000000;font-style:normal;font-variant:normal;font-weight:normal;font-stretch:normal;font-size:medium;line-height:normal;font-family:sans-serif;font-variant-ligatures:normal;font-variant-position:normal;font-variant-caps:normal;font-variant-numeric:normal;font-variant-alternates:normal;font-feature-settings:normal;text-indent:0;text-align:start;text-decoration:none;text-decoration-line:none;text-decoration-style:solid;text-decoration-color:#000000;letter-spacing:normal;word-spacing:normal;text-transform:none;writing-mode:lr-tb;direction:ltr;text-orientation:mixed;dominant-baseline:auto;baseline-shift:baseline;text-anchor:start;white-space:normal;shape-padding:0;clip-rule:nonzero;display:inline;overflow:visible;visibility:visible;opacity:1;isolation:auto;mix-blend-mode:normal;color-interpolation:sRGB;color-interpolation-filters:linearRGB;solid-color:#000000;solid-opacity:1;vector-effect:none;fill:#96ded3;fill-opacity:1;fill-rule:nonzero;stroke:none;stroke-width:64.7947;stroke-linecap:round;stroke-linejoin:bevel;stroke-miterlimit:4;stroke-dasharray:none;stroke-dashoffset:0;stroke-opacity:1;color-rendering:auto;image-rendering:auto;shape-rendering:auto;text-rendering:auto;enable-background:accumulate"
         d="m 961.16797,-1677.834 -105.82617,0.012 a 32.400567,32.400567 0 1 0 0.008,64.795 l 105.81836,-0.012 z"
         transform="translate(0,860.36216)"
         id="path1132"
         inkscape:connector-curvature="0" />
    </g>
  </g>
  <style
     type="text/css"
     id="style853">
	.st0{fill:#FFFFFF;}
</style>
</svg>

<svg xmlns="http://www.w3.org/2000/svg" id="svg2" width="192" height="192" version="1.1"><g id="layer1-7" style="display:inline;fill:#fefefe;fill-opacity:1" transform="matrix(.90319 0 0 .90319 9.294 -770.254)"><g id="g31" style="fill:#fefefe;fill-opacity:1" transform="matrix(8 0 0 8 0 860.362)"><path id="path934" d="M57.707 21.25a4.14 4.14 0 0 0-2.955 7.068l11.99 11.99c-12.336 9.014-20.418 23.483-20.418 39.938v2.955a4.132 4.132 0 0 0 4.14 4.14h91.071a4.132 4.132 0 0 0 4.14-4.14v-2.955c0-16.455-8.08-30.924-20.417-39.937l11.99-11.99a4.14 4.14 0 0 0-5.853-5.856l-13.42 13.418c-6.665-3.328-14.037-5.31-21.975-5.31-7.948 0-15.328 1.986-21.928 5.322l-13.467-13.43a4.14 4.14 0 0 0-2.898-1.213Z" style="fill:#fefefe;fill-opacity:1;stroke-width:7.09647" transform="matrix(.14092 0 0 .14092 -1.528 -1.308)"/><path id="path949" d="M15 9c-.55 0-1-.45-1-1s.45-1 1-1 1 .45 1 1-.45 1-1 1z" style="fill:#f9de82;fill-opacity:1"/><path id="path947" d="M9 9c-.55 0-1-.45-1-1s.45-1 1-1 1 .45 1 1-.45 1-1 1Z" style="fill:#fed5d4;fill-opacity:1"/><path id="path19" d="M50.465 94.44a4.13 4.13 0 0 0-4.14 4.138v24.246c0 27.464 22.212 49.676 49.675 49.676 27.463 0 49.676-22.212 49.676-49.676V98.578a4.13 4.13 0 0 0-4.14-4.139z" style="fill:#fefefe;fill-opacity:1;stroke-width:7.09647" transform="matrix(.14092 0 0 .14092 -1.528 -1.308)"/></g><g id="g1134" style="fill:#fefefe;fill-opacity:1" transform="matrix(.2263 0 0 .2263 -121.453 1190.792)"><path id="path1126" d="m1066.952-785.087-211.606.023" style="opacity:1;fill:#96ded3;fill-opacity:1;stroke:#96ded3;stroke-width:64.7947;stroke-linecap:round;stroke-linejoin:bevel;stroke-miterlimit:4;stroke-dasharray:none;stroke-opacity:1"/><path id="path1128" d="m961.169-968.354 105.783 183.267" style="opacity:1;fill:#fefefe;fill-opacity:1;stroke:#f9de82;stroke-width:64.7947;stroke-linecap:round;stroke-linejoin:bevel;stroke-miterlimit:4;stroke-dasharray:none;stroke-opacity:1"/><path id="path1130" d="M961.169-968.354 855.386-785.087" style="opacity:1;fill:#fefefe;fill-opacity:1;stroke:#fed5d4;stroke-width:64.7947;stroke-linecap:round;stroke-linejoin:bevel;stroke-miterlimit:4;stroke-dasharray:none;stroke-opacity:1"/><path id="path1132" d="m961.168-1677.834-105.826.012a32.4 32.4 0 1 0 .008 64.795l105.818-.012z" style="color:#000;font-style:normal;font-variant:normal;font-weight:400;font-stretch:normal;font-size:medium;line-height:normal;font-family:sans-serif;font-variant-ligatures:normal;font-variant-position:normal;font-variant-caps:normal;font-variant-numeric:normal;font-variant-alternates:normal;font-feature-settings:normal;text-indent:0;text-align:start;text-decoration:none;text-decoration-line:none;text-decoration-style:solid;text-decoration-color:#000;letter-spacing:normal;word-spacing:normal;text-transform:none;writing-mode:lr-tb;direction:ltr;text-orientation:mixed;dominant-baseline:auto;baseline-shift:baseline;text-anchor:start;white-space:normal;shape-padding:0;clip-rule:nonzero;display:inline;overflow:visible;visibility:visible;opacity:1;isolation:auto;mix-blend-mode:normal;color-interpolation:sRGB;color-interpolation-filters:linearRGB;solid-color:#000;solid-opacity:1;vector-effect:none;fill:#96ded3;fill-opacity:1;fill-rule:nonzero;stroke:none;stroke-width:64.7947;stroke-linecap:round;stroke-linejoin:bevel;stroke-miterlimit:4;stroke-dasharray:none;stroke-dashoffset:0;stroke-opacity:1;color-rendering:auto;image-rendering:auto;shape-rendering:auto;text-rendering:auto;enable-background:accumulate" transform="translate(0 860.362)"/></g></g><style id="style853" type="text/css">.st0{fill:#fff}</style></svg>
